X: 1431
T: the Mooncoin Reel   #2
R: reel
%S: s:2 b:13(7+6)
B: O'Neill's 1850 #1431
O: Dollard
Z: Transcribed by Bob Safranek, rjs@gsp.org
M: C|
L: 1/8
K: D
((3ABc) |: d2(AF) DFAc | dced cA [1 Ac | BAGF GABc | dced cABc :|[2 GA | BAGF GABc | dcec d2 |]
de |: fdad fdad | fdad fddf |[1 ecgc ecgc | ecgc ecce :|[2 g2(gf) gbag | fdec d2 |]
